www.nintendo.com/images/global/navigation/icons/ca-flag.svg

<svg viewBox="0 0 612 393" xmlns="http://www.w3.org/2000/svg" xmlns:xlink="http://www.w3.org/1999/xlink"><clipPath id="a"><path d="m568.286 0h-87.429v393h87.429c24.142 0 43.714-19.55 43.714-43.667v-305.666c0-24.117-19.572-43.667-43.714-43.667z"/></clipPath><clipPath id="b"><path d="m-3803.143-1331.833h8196.429v14191.667h-8196.429z"/></clipPath><clipPath id="c"><path d="m43.714 0c-24.142 0-43.714 19.55-43.714 43.667v305.667c0 24.116 19.572 43.666 43.714 43.666h87.429v-393z"/></clipPath><clipPath id="d"><path d="m-3803.143-1331.833h8196.429v14191.667h-8196.429z"/></clipPath><clipPath id="e"><path d="m131.143 0h349.714v393h-349.714z"/></clipPath><clipPath id="f"><path d="m-3803.143-1331.833h8196.429v14191.667h-8196.429z"/></clipPath><clipPath id="g"><path d="m306 43.667-21.857 45.85c-2.186 4.367-28.414-6.55-28.414-6.55l10.929 69.867c2.186 13.1-39.343-28.383-39.343-28.383l-4.371 17.467a6.557 6.557 0 0 1 -6.557 4.367l-34.971-6.55 8.743 37.117c2.186 8.733 4.371 10.917-2.186 13.1l-13.114 6.55 63.386 54.583a104.675 104.675 0 0 1 -2.186 28.383l63.386-8.733a6.549 6.549 0 0 1 4.371 6.55v72.05h10.929v-72.05a6.551 6.551 0 0 1 4.371-6.55l63.386 8.733a104.678 104.678 0 0 1 -2.186-28.383l56.829-54.583-13.114-6.55c-6.557-2.183-4.371-6.55-2.186-13.1l8.743-37.117-37.157 8.733a6.557 6.557 0 0 1 -6.557-4.367l-4.371-17.467s-39.343 39.3-37.157 26.2l13.114-69.867s-26.229 13.1-28.414 6.55z"/></clipPath><clipPath id="h"><path d="m-3803.143-1331.833h8196.429v14191.667h-8196.429z"/></clipPath><g clip-path="url(#a)"><path clip-path="url(#b)" d="m371.571-109.167h349.714v611.333h-349.714z" fill="#f00"/></g><g clip-path="url(#c)"><path clip-path="url(#d)" d="m-109.286-109.167h349.714v611.333h-349.714z" fill="#f00"/></g><g clip-path="url(#e)"><path clip-path="url(#f)" d="m21.857-109.167h568.286v611.333h-568.286z" fill="#fff"/></g><g clip-path="url(#g)"><path clip-path="url(#h)" d="m65.571-65.5h480.857v524h-480.857z" fill="#f00"/></g><path d="m568.477 10c18.485 0 33.523 15.055 33.523 33.56v305.88c0 18.505-15.038 33.56-33.523 33.56h-524.954c-18.485 0-33.523-15.055-33.523-33.56v-305.88c0-18.505 15.038-33.56 33.523-33.56zm0-10h-524.954c-23.854 0-43.523 19.502-43.523 43.56v305.88c0 24.071 19.486 43.56 43.523 43.56h524.954c23.854 0 43.523-19.502 43.523-43.56v-305.88c0-24.071-19.486-43.56-43.523-43.56z" fill="#fff"/></svg>

<svg xmlns="http://www.w3.org/2000/svg" xmlns:xlink="http://www.w3.org/1999/xlink" viewBox="0 0 612 393"><defs><path id="a" d="M568.286 0h-87.429v393h87.429C592.428 393 612 373.45 612 349.333V43.667C612 19.55 592.428 0 568.286 0z"/></defs><clipPath id="b"><use xlink:href="#a" overflow="visible"/></clipPath><g clip-path="url(#b)"><defs><path id="c" d="M-3803.143-1331.833h8196.429v14191.667h-8196.429z"/></defs><clipPath id="d"><use xlink:href="#c" overflow="visible"/></clipPath><path clip-path="url(#d)" fill="#F00" d="M371.571-109.167h349.714v611.333H371.571z"/></g><defs><path id="e" d="M43.714 0C19.572 0 0 19.55 0 43.667v305.667C0 373.45 19.572 393 43.714 393h87.429V0H43.714z"/></defs><clipPath id="f"><use xlink:href="#e" overflow="visible"/></clipPath><g clip-path="url(#f)"><defs><path id="g" d="M-3803.143-1331.833h8196.429v14191.667h-8196.429z"/></defs><clipPath id="h"><use xlink:href="#g" overflow="visible"/></clipPath><path clip-path="url(#h)" fill="#F00" d="M-109.286-109.167h349.714v611.333h-349.714z"/></g><g><defs><path id="i" d="M131.143 0h349.714v393H131.143z"/></defs><clipPath id="j"><use xlink:href="#i" overflow="visible"/></clipPath><g clip-path="url(#j)"><defs><path id="k" d="M-3803.143-1331.833h8196.429v14191.667h-8196.429z"/></defs><clipPath id="l"><use xlink:href="#k" overflow="visible"/></clipPath><path clip-path="url(#l)" fill="#FFF" d="M21.857-109.167h568.286v611.333H21.857z"/></g></g><g><defs><path id="m" d="M306 43.667l-21.857 45.85c-2.186 4.367-28.414-6.55-28.414-6.55l10.929 69.867c2.186 13.1-39.343-28.383-39.343-28.383l-4.371 17.467a6.557 6.557 0 0 1-6.557 4.367l-34.971-6.55 8.743 37.117c2.186 8.733 4.371 10.917-2.186 13.1l-13.114 6.55 63.386 54.583a104.675 104.675 0 0 1-2.186 28.383l63.386-8.733a6.549 6.549 0 0 1 4.371 6.55v72.05h10.929v-72.05a6.551 6.551 0 0 1 4.371-6.55l63.386 8.733a104.678 104.678 0 0 1-2.186-28.383l56.829-54.583-13.114-6.55c-6.557-2.183-4.371-6.55-2.186-13.1l8.743-37.117-37.157 8.733a6.557 6.557 0 0 1-6.557-4.367l-4.371-17.467s-39.343 39.3-37.157 26.2l13.114-69.867s-26.229 13.1-28.414 6.55L306 43.667z"/></defs><clipPath id="n"><use xlink:href="#m" overflow="visible"/></clipPath><g clip-path="url(#n)"><defs><path id="o" d="M-3803.143-1331.833h8196.429v14191.667h-8196.429z"/></defs><clipPath id="p"><use xlink:href="#o" overflow="visible"/></clipPath><path clip-path="url(#p)" fill="#F00" d="M65.571-65.5h480.857v524H65.571z"/></g></g><g><path fill="#FFF" d="M568.477 10C586.962 10 602 25.055 602 43.56v305.88c0 18.505-15.038 33.56-33.523 33.56H43.523C25.038 383 10 367.945 10 349.44V43.56C10 25.055 25.038 10 43.523 10h524.954m0-10H43.523C19.669 0 0 19.502 0 43.56v305.88C0 373.511 19.486 393 43.523 393h524.954C592.331 393 612 373.498 612 349.44V43.56C612 19.489 592.514 0 568.477 0z"/></g></svg>
